resources/icons/16px/input.svg

<svg width="16" height="16" viewBox="0 0 16 16" fill="none" xmlns="http://www.w3.org/2000/svg">
<path d="M8 16C12.41 16 16 12.4178 16 7.995C16 3.57223 12.41 0 8 0C7.06 0 6.14 0.1601 5.26 0.4803C4.74 0.670419 4.47 1.24078 4.66 1.7611C4.85 2.28143 5.42 2.55159 5.94 2.36148C6.6 2.12133 7.29 2.00125 7.99 2.00125C11.3 2.00125 13.99 4.69293 13.99 8.005C13.99 11.3171 11.3 14.0088 7.99 14.0088C7.29 14.0088 6.6 13.8887 5.94 13.6485C5.42 13.4584 4.85 13.7286 4.66 14.2489C4.47 14.7692 4.74 15.3396 5.26 15.5297C6.14 15.8499 7.06 16 8 16Z" fill="#111418"/>
<path d="M11.71 7.29456C11.89 7.47467 12 7.72483 12 8.005C12 8.28518 11.89 8.53533 11.71 8.71545L8.71 11.7173C8.53 11.8974 8.28 12.0075 8 12.0075C7.45 12.0075 7 11.5572 7 11.0069C7 10.7267 7.11 10.4765 7.3 10.2964L8.59 9.00563H1C0.45 9.00563 0 8.55535 0 8.005C0 7.45466 0.45 7.00438 1 7.00438H8.59L7.29 5.71357C7.11 5.53346 7 5.2833 7 5.00313C7 4.45278 7.45 4.0025 8 4.0025C8.28 4.0025 8.53 4.11257 8.71 4.29268L11.71 7.29456Z" fill="#111418"/>
</svg>

<svg xmlns="http://www.w3.org/2000/svg" viewBox="0 0 16 16">
  <path d="M8 16c4.41 0 8-3.582 8-8.005S12.41 0 8 0c-.94 0-1.86.16-2.74.48-.52.19-.79.76-.6 1.281s.76.79 1.28.6a6.007 6.007 0 0 1 8.05 5.644 6.007 6.007 0 0 1-8.05 5.643.997.997 0 0 0-1.28.6c-.19.521.08 1.092.6 1.282.88.32 1.8.47 2.74.47"/>
  <path d="M11.71 7.295c.18.18.29.43.29.71s-.11.53-.29.71l-3 3.002a1.003 1.003 0 0 1-1.71-.71c0-.28.11-.53.3-.71l1.29-1.291H1c-.55 0-1-.45-1-1.001s.45-1 1-1h7.59l-1.3-1.291a1.003 1.003 0 0 1 1.42-1.42z"/>
</svg>
